libs/ui/packages/crypto-icons/src/svg/YFI.svg

<svg width="24" height="24" viewBox="0 0 24 24" fill="none">
<path d="M11.4075 16.7699V7.31543H12.4365V16.7699H11.4075Z" fill="#006AE3"/>
<path d="M16.6477 10.4654L13.4677 11.3084L12.759 8.00845L13.704 7.79545L14.0775 9.35845C14.0775 9.35845 14.9362 7.94995 13.791 6.49045C13.116 5.74045 12.7957 5.70895 12.039 5.59045C11.373 5.4952 9.825 5.7202 9.36375 7.52695C9.16875 8.69095 9.3885 9.55195 10.8885 10.6792L10.8045 11.9339C10.8045 11.9339 9.12975 10.7542 8.69775 9.92695C8.364 9.2722 7.79025 7.9792 8.82525 6.1792C9.38175 5.2792 10.4797 4.41595 12.414 4.5067C13.386 4.5472 15.7612 5.7367 15.393 8.5132C15.3292 9.0337 15.0592 9.7267 15.0592 9.7267L16.3642 9.43645L16.6477 10.4654ZM14.832 17.8635C14.25 18.7477 13.1295 19.5809 11.1997 19.4407C10.227 19.3747 7.88625 18.1222 8.32725 15.3562C8.4045 14.8387 8.69325 14.1539 8.69325 14.1539L7.3815 14.4089L7.125 13.3747L10.3275 12.6157L10.95 15.9337L9.9975 16.1227L9.666 14.5477C9.666 14.5477 8.7705 15.9314 9.87525 17.4225C10.5292 18.1904 10.848 18.2295 11.6047 18.3674C12.2662 18.4815 13.8202 18.2955 14.3295 16.5022C14.5545 15.3449 14.3565 14.4772 12.8887 13.3087L13.0065 12.0562C13.0065 12.0562 14.6497 13.2787 15.0592 14.1179C15.3727 14.7839 15.9112 16.0927 14.832 17.8635Z" fill="#006AE3"/>
</svg>

<svg width="24" height="24" viewBox="0 0 24 24" fill="none"><path fill="#006ae3" d="M11.408 16.77V7.315h1.029v9.455z"/><path fill="#006ae3" d="m16.648 10.465-3.18.843-.709-3.3.945-.213.373 1.563s.86-1.408-.286-2.868c-.675-.75-.995-.781-1.752-.9-.666-.095-2.214.13-2.675 1.937-.195 1.164.024 2.025 1.524 3.152l-.083 1.255s-1.675-1.18-2.107-2.007c-.334-.655-.908-1.948.127-3.748.557-.9 1.655-1.763 3.589-1.672.972.04 3.347 1.23 2.979 4.006-.064.52-.334 1.214-.334 1.214l1.305-.29zm-1.816 7.398c-.582.885-1.703 1.718-3.632 1.578-.973-.066-3.314-1.319-2.873-4.085.078-.517.366-1.202.366-1.202l-1.311.255-.257-1.034 3.203-.76.622 3.319-.952.189-.332-1.575s-.896 1.383.21 2.874c.653.768.972.808 1.729.945.661.114 2.215-.072 2.724-1.865.226-1.157.027-2.025-1.44-3.193l.118-1.253s1.643 1.223 2.052 2.062c.314.666.852 1.975-.227 3.745"/></svg>
